!!!OTL: ES HATT EIN BAUR EIN TOECHTERLEIN
!!!ARE: Europa, Mitteleuropa, Deutschland, Schlesien
!!!SCT: E0119B
!!!YEM: Copyright 1995, estate of Helmut Schaffrath.
**kern
*ICvox
*Ivox
*M3/4
*k[b-]
*F:
{8c
=1
8c
8f
8f
8a
8cc
8a
=2
8a
8g
4g
8r}
{8g
=3
8g
8a
4b-
4cc
=4
8b-
8a
4a
8r}
{8f
=5
8f
8f
4.dd
8cc
=6
8b-
8dd
4cc
8r}
{8b-
=7
8a
8f
8cc
8b-
4a
=8
4g
4f
8r}
==
!!!AGN: erzaehlendes Volks - Lied, Schalk -, Schelmen - Lied, Liebe, Ballade ?
!!!ONB: ESAC (Essen Associative Code) Database: ERK1
!!!AMT: simple triple
!!!AIN: vox
!!!EED: Helmut Schaffrath
!!!EEV: 1.0
*-
